X:1
T:Title
%%score ( 1 2 ) { 3 | 4 }
L:1/8
Q:1/4=110
M:4/4
K:Eb
V:1 treble nm="Grand Piano, Unnamed-000"
V:2 treble 
V:3 bass nm="Choir Pad, Munich, 76.76 D"
V:4 bass 
V:1
 EF [EG]2 [Ec]2 [DB]2 | [FA]2 [EG]4 [EG]2 | [EG]2 [EB]2 AG [EF]2 | [DF]2 E6 | %4
w: By~Neuvermehrtes~Gesangbuch,~Meiningen,~1693 * * * *||||
 [B,E][DF] [EG]2 [Gc]2 [FB]2 | A-[EA] [DG]4 [DG]2 | [EG]2 [EB]2 AG [EF]2 | [DF]2 E6 | %8
w: ||||
 [DF]2 [DF]2 [=EG]2 [FA]2 | [FA]2 [EG]4 [EG]2 | [Fc]2 [Ee]2 [Gc]2 G2 | =A-[EA] [DB]6 | %12
w: ||||
 [FB]2 [EB]2 [EG]2 [EA]2 | B-[GB] [Ac]4 [Ac]2 | [EB]2 [EA]2 [EG]2 [EF]2 | [DF]2 E6- | E2 z2 z4 |] %17
w: |||||
V:2
 x8 | x8 | z4 E2 z2 | x8 | x8 | .F2 z2 z4 | z4 E2 z2 | x8 | x8 | x8 | x8 | .F2 z2 z4 | x8 | %13
 .F2 z2 z4 | x8 | x8 | x8 |] %17
V:3
 G,A, B,2 A,G, F,2 | B,2 B,4 B,2 | B,2 B,2 C2 F,G, | A,2 G,6 | G,F, B,2[K:treble] E2 D2 | %5
 C2 =B,4 B,2 | C2[K:bass] B,2 C2 F,G, | A,2 G,6 | B,2 B,2 B,2[K:treble] C2 | C2 C4 C2 | %10
 A,2 G,2 ED C2 | C2[K:bass] B,6 | A,2 G,2 B,2 E2 | _D2 C4 E2 | E2 A,2 C2[K:bass] F,G, | A,2 G,6- | %16
 G,2 z2 z4 |] %17
V:4
 E,2 E,2 A,,2 B,,2 | D,2 E,4 E,2 | E,2 G,,2 A,,2 B,,2 | B,,2 E,6 | z2 E,2 C,2 D,E, | F,2 G,4 G,2 | %6
 C,2 G,,2 A,,2 B,,2 | B,,2 E,6 | z2 A,2 G,2 F,2 | F,2 C,4 C,2 | C,2 C,2 C,D, E,2 | F,2 B,,6 | %12
 D,2 E,2 _D,2 C,2 | B,,2 A,,4 A,,2 | G,,2 C,2 A,,2 B,,2 | B,,2 E,6- | E,2 z2 z4 |] %17

